X:1
T:GASPARD DE LA NUIT
T:GASPARD DE LA NUIT 
T:II. LE GIBET
T:Maurice Ravel (1875-1937) 
C:Maurice Ravel (1875-1937)
%%score { ( 1 4 7 ) | ( 2 5 8 ) | ( 3 6 ) }
L:1/8
Q:1/4=50
M:4/4
K:Gb
V:1 treble nm="Grand Piano" snm="Pno."
V:4 treble 
V:7 treble 
V:2 bass 
V:5 bass 
V:8 bass 
V:3 bass 
V:6 bass 
V:1
"^Trés lent""^Sans presser ni relentir jusqu'a la fin" z2 z!pp! (!>!.[B,-B] .[B,B]2) (!>!.[B,-B] .[B,B]-) | %1
[B,B] !tenuto!B2 (!>!.[B,-B] .[B,B]2) (!>!.[B,B] .[B,B-]) | %2
"_un peu marqué"B !tenuto!B2 (!>!.[B,B] .B2) (!>!.[B,B] .B-) | %3
 B !tenuto!B2 (!>!.[B,B] .B2) (!>!.[B,B] .B-) |B !tenuto!B2 (!>!.[B,-B] .[B,B]2) z2 | %5
!p!"_expressif" x8 | _F6 (!>!.[B,B] .[B,B-]) | B !tenuto!B2 (!>!.[B,B] .B2) (!>!.[B,B] .B-) | %8
B !tenuto!B2 (!>!.[B,-B] .[B,B]2) z2 |!p!"_expressif" ([d_f]>[eg] [df]2 [fa][e=g][=ce]>[e_g] | %10
 [eg]2 [d_f]6) |!p!!<(! ([Acea]4- [Acea][=E_A=B=e][FA=cf]>!<)!!mp!!>(![_B=dgb]!>)! | %12
!p! [A_cea]4- [Acea]!<(![=E_A=B=e] (3[FA=cf]!<)!!mp!!>(![_B=dgb][=A_df=a]!>)! | %13
!p! [_A_ce_a]4-) [Acea]!>(! ([GB=dg]2!>)!!pp! [FA=cf]) |[M:3/4] x6 | x6 | %16
[M:4/4]!mf!!<(! ([d_fad']4- [dfad'][=A=c=e=a][Bd=fb]>!<)!!f!!>(![_e=g_c'e']!>)! | %17
!mf! [d_fad']4- [dfad']!<(![=A=c=e=a] (3[Bd=fb]!<)!!f!!>(![_e=g_c'e'][=d_gb=d']!>)! | %18
!mp! [_d_fa_d']4- [dfad']!>(! ([!courtesy!_ce=g!courtesy!_c']2!>)!!pp! .[Bd=fb])) | %19
"_un peu en dehors" z!ppp!!8va(! ([__e'g'c''_f''][ae'g'c''][gc'_f'a']!8va)! [_fae'g'][__egc'f'][Aegc'][Gcfa] | %20
 [A__eg][Gc_f][Gc][_FA] [__EG][D=F][=C=E][_C_E]) | %21
 ([__EG][D=F][=C=E][_C_E] [__EG][DF][=C=E][_C_E]) | %22
[K:C] z!ppp!!8va(! [d'^g'b'e''][be'=g'^c''][^gd'!courtesy!=f'^a']!8va)! [fbe'g'][dgbe'][Be=g^c'][df^a] | %23
 x !tenuto!^A2 (!>!.A .A2) (!>!.A .A-) | A !tenuto!^A2 (!>!.A .A2) (!>!.A .A-) |A z z2 z4 | z8 | %27
[M:6/4]!pp!"^un peu en dehors, mais sans expression" (f2 e4- ef ^c2 f2 | f2 e4) (ef g2 fe | %29
[M:4/4]!>(! (!>!e2!>)! d2)) z4 | z4 z ([Ff]2 [Gg] | %31
[M:5/4] [Aa]2!<(! [Gg]2- [Gg][Aa]!<)!!p! [cc']2!>(! [_B_b][Aa] |[M:4/4] [Aa]2!>)!!pp! [Gg]6) | %33
!>(! (!>!A2!>)! G2- GAc_B) | %34
[K:Gb]!pp! z ([egbe']3-!<(! [egbe'][=Beg=b] [=ceg=c']>!<)!!p!!>(![f_bd'f'])!>)! | %35
!pp! ([egbe']4- [egbe']!<(![=Beg=b] (3[=ceg=c']!<)!!p!!>(![fac'f'][=e=g=b=e']) | %36
 ([_e_g_b_e']3 [egb]!>)!!pp!!<(! [A=cea]2 [Gdg][Aea]!<)! | %37
[M:3/4]!p!!>(! [d-gbd'][degb]!>)!!pp! [FA=cf]2!<(! [EGe][FAcf]!<)! | %38
[M:4/4]!p!!>(! [A=cea]3 [Geg] [EGBe]2 [EGB]2!>)! | %39
 z)!ppp!!8va(! ([_f'b'd''g''][bf'a'd''][ad'g'b']!8va)! [gbf'a'][_fbd'g'][dgbe'][Bfad'] | %40
 [Adgb][GB_fa][_FB-dg][DGBe] [Dd]2) x2 | x [Dd]2 x x2 d2 | %42
 x [Dd]2 x z!ppp! ([_fbd'g'][dgbe'][Bfad'] | %43
 [Adgb][GB_fa][_Fdg][DGe]!mp! [DBd]) !tenuto!B2 (!>!.B | .B2) (!>!.B .B2) (!>!.B .B2) | %45
!mp!!>(! (!>!.B .B2)!>)! (!>!.B .B2) (!>!.B .B-) |!p!!>(!B !tenuto!B2!>)! (!>!.B .B2) (!>!.B .B-) | %47
!pp!!>(!B !tenuto!B2!>)! (!>!.B .B2) (!>!.B .B-) | %48
!pp!!>(! B !tenuto!B2!>)! (!>!.B .B2) (!>!.B .B-) | %49
!ppp!!>(!B !tenuto!B2!>)! (!>!.B .B2) (!>!.[B,-B] .[B,B]-) | %50
[B,B]!>(! !tenuto!B2 !>!.[B,-B] .[B,B]2 !>!.[B,-B] .[B,B]- |[B,B]!>)! z z2 z4 |] %52
V:2
!ped! z8 | z8!ped-up! | x8 | x8 | x6[K:treble] (!>!.[B,-B] .[B,B]-) | %5
[B,B] !tenuto![B,B]2 (!>!.[B,-B] .[B,B]2) (!>!.[B,-B] .[B,B]-) | %6
[B,B] !tenuto![B,B]2!pp! (!>!.[B,-B] .[B,B]2) z2 |[K:bass] x8 | x6[K:treble] (!>!.[B,-B].[B,B]-) | %9
[B,B] !tenuto![B,B]2 (!>!.[B,-B] .[B,B]2) (!>!.[B,-B].[B,B]-) | %10
[B,B] !tenuto![B,B]2!pp! (!>!.[B,-B] .[B,B]2) z2 |[K:bass]!p! x3 B,- B,2 x2 | x3 B,- B,2 x2 | x8 | %14
[M:3/4]!pp! ([E,A,]4 [B,,E,]2) | ([E,A,]4 [B,,E,]2) | %16
[M:4/4][K:treble] ([B,_FA]4- [B,FA][^F,=C=E][=G,D=F]>[D=G_c] | %17
 [D_FA]4- [DFA][^F,=C=E] (3[=G,D=F][D=G_c][=C_GB] | %18
 [B,_FA]4- [B,FA]!>(! ([B,E=G]2!>)!!pp! [=G,D=F])) | %19
 z/ !tenuto![B,B]/- [B,B]3/2 (!>!.B/- .B/).B/- B2 (!>!.B .B-) | %20
B !tenuto!B2[K:bass] x ([_F,A,][D,=F,][=D,^F,][_C,_E,] | %21
 [_F,A,][D,=F,][=D,^F,][_C,_E,] [_F,A,][_D,=F,][=D,^F,][_C,_E,]) | %22
[K:C][K:treble] z/ !tenuto![^A,^A]/- [A,A]3/2 (!>!.A/- .A/).A/- A2 (!>!.A .A-) | %23
A z2 z [B,E-][_B,E=A][^A,E^G][_A,D=G] | %24
 [^^F,^C^F][^F,^B,^E] [=B,=E-][_B,EA][^A,E^G][_A,D=G][^^F,CF][^F,^B,^E] | %25
[K:bass]!p!"^un peu marqué"!>(! (!>!=E2!>)! D6) |!>(! (!>!=E2!>)! D6) |[M:6/4] z12 | %28
 z2 z2 z [A,^CG]- [A,CG]6 |[M:4/4]!>(!{/=E} (E2!>)! D2) x4 | %30
!>(! (!>!E2!>)! D2) x2[I:staff +1] (.[_B,-_B] .[B,B]-) | %31
[M:5/4][I:staff -1][K:treble][B,B] !tenuto![_B,_B]2 (.[B,-B] .[B,B]2) (.[B,-B] .[B,B]2) [B,B]- | %32
[M:4/4][B,B] !tenuto![_B,_B]2 (.[B,-B] .[B,B]2) (.[B,-B] .[B,B]-) | %33
 [B,B] !tenuto![_B,_B]2 (.[B,-B] .[B,B]2) [B,-B] B,- | %34
[K:Gb][B,B] (!>!.[B,-B] .[B,B]2) (!>!.[B,-B] .[B,B]2) !>![_B,B]- | %35
 [B,B]2 (!>!.[B,-B] .[B,B]2) (!>!.[B,-B] .[B,B]2) | ([=C_E_GB]3 [B,EG] [A,CE]2 [G,B,E][A,CE] | %37
[M:3/4] [DGB][B,EG][K:bass] [F,A,B,=C]2 [E,G,B,][F,A,B,C] | %38
[M:4/4] [A,B,=CE]3 [G,E] [E,G,]2 [B,,E,G,]2) | x3 (!>!.B, .B,2) (.B[I:staff -1] .B) | %40
[I:staff +1] x8[K:treble] | x8 | x4[K:bass] z ([_F,,-B,,G,][F,,D,B,][D,_F] | %43
 [G,D][B,-_F][A,B,D][_F,B,] [D,G,B,]4) | z8 | [B,,E,A,B,]8 | [A,,=C,G,]8 | %47
 ([E,,B,,F,]4- [E,,B,,F,][C,,G,,D,][D,,A,,E,]>[A,,C,E,B,] | %48
 [E,,B,,F,]4-) [E,,B,,F,]([C,,G,,D,][D,,A,,E,]>[A,,C,E,B,] | ((([E,,B,,F,]8)!ped! | z8))) | %51
 z8!ped-up! |] %52
V:3
 z8 | z8 | z8 | z8 | z8 | z8 | z8 | z8 | z8 | z8 | z8 | z2 [B,,,B,,]6- | [B,,,B,,]2 [B,,,B,,]6- | %13
 [B,,,B,,]2 [B,,,B,,]6 |[M:3/4] ([E,,B,,]4 [B,,,F,,]2) | ([E,,B,,]4 [B,,,F,,]2) | %16
[M:4/4]{/[E,,B,,]} [E,,B,,]4 z4 | z8 | z8 | %19
 z!ppp! ([A,,__E,C][C,_F,__E][E,A,_F] [F,A,E][A,EG][CF][EG] | %20
 [C_F][A,__E][I:staff -1][F,A,__E][C,G,C])[I:staff +1] x4 | z8 | %22
[K:C]!pp! z ([B,,F,D][D,-^G,E][D,B,F] [F,D=G][^G,D^G][B,D][B,E] | %23
 [G,DF][F,B,D][D,^G,B,][B,,=G,] [=G,,F,][=C,,E,][^F,,,^F,,][_B,,,_B,,] | %24
 ^D,,^G,, [=G,,=F,][C,,E,][^F,,,^F,,][_B,,,_B,,]D,,[^G,,,^G,,]) | %25
 z !tenuto![^A,^A]2 (.[A,-A] .[A,A]2) (.[A,-A] .[A,A]-) | %26
[A,A] !tenuto![^A,^A]2 (.[A,-A] .[A,A]2) (.[A,-A] .[A,A]-) | %27
[M:6/4] [x_B,_B] !tenuto![B,B]2 (.[B,-B] .[B,B]2) (.[B,-B] .[B,B]2) (.[B,-B] .[B,B]2) | %28
 (.[_B,-_B] .[B,B]2) (.[B,-B] .[B,B]2) (.[B,-B] .[B,B]2) !tenuto![B,B]2 [B,B]- | %29
[M:4/4][B,B] !tenuto![^A,^A]2 (.[A,-A] .[A,A]2) (.[A,-A] .[A,A]-) | %30
 [x_B,_B] !tenuto![B,B]2 (.[B,-B] .[B,B]2) x2 |[M:5/4] [G,,D,_B,]6- [G,,D,B,]4 | %32
[M:4/4]{/[_E,,_B,,]} [E,,B,,]8 | [_E,,_B,,]8 |[K:Gb] [=C,,-=C,-E,G,B,]8 | %35
 [C,,C,][=C,,=C,]- [C,,C,]6- | [C,,C,][=C,,=C,]- [C,,C,]6- |[M:3/4] [C,,C,]6- | %38
[M:4/4] [C,,C,][=C,,=C,]- [C,,C,]6 |!pp!!8vb(! [B,,,,B,,,]8- | [B,,,,B,,,]4 ([B,,,,-B,,,]4 | %41
 [B,,,,B,,,]8-) | [B,,,,B,,,]4 [B,,,,B,,,]4- | [B,,,,B,,,]6- [B,,,,B,,,][B,,,,B,,,]- | %44
 [B,,,,B,,,]8- | [B,,,,B,,,]3 [B,,,,B,,,]- [B,,,,B,,,]4- | %46
 [B,,,,B,,,]3 [B,,,,B,,,]- [B,,,,B,,,]4- | [B,,,,B,,,]3 B,,,,- B,,,,4- | B,,,,3 B,,,,- B,,,,4- | %49
 B,,,,3 B,,,,- (B,,,,4!8vb)! | z8) | z8 |] %52
V:4
 x8 | x6 B,-B,- | ([B,F]4- [B,F][G,D][A,E-]>[CE] | [B,F]4- [B,F][G,D][A,E-]>[CE] | [B,F]8) | %5
 (d>e d2 _fe=c>e | e2 d4) B,-B,- | ([B,F]4- [B,F][G,D][A,E-]>[CE] | [B,F]8) | x8 | %10
 x6 (!>!.[B,-B] .[B,B]-) | [B,B] !tenuto![B,B]2 (!>!.B .B2) (!>!._B .B-) | %12
B !tenuto![B,B]2 (!>!.B .B2) (!>!._B .B-) |B !tenuto![B,B]2 (!>!.[B,-B] .[B,B]2) (!>!.B .[xB]-) | %14
[M:3/4] [B,B] (!>!.[B,-B] .[B,B]3) !tenuto![B,B]- | [B,B] (!>!.[B,-B] .[B,B]3) !tenuto![B,B]- | %16
[M:4/4][B,B] !tenuto![B,B]2 (!>!.B .B2) (!>!.B .B-) |B !tenuto![B,B]2 (!>!.B .B2) (!>!.B x) | %18
 B !tenuto![B,B]2 (!>!.[B,-B] .[B,B]2)[I:staff +1] (!>!.B[I:staff -1].B) | x!8va(! x3!8va)! x4 | %20
 x3 (!>!.[B,-B] .[B,B]2) (.B .B-) | B !tenuto!B2 (!>!.B .B2) (!>!.B .B) | %22
[K:C] x!8va(! x3!8va)! x4 | [Be=g][Fe][E=G^c][DF] z4 | x8 | x8 | x8 |[M:6/4] x12 | x12 | %29
[M:4/4] x8 | x8 |[M:5/4] x10 |[M:4/4]{/[G,_DF]} [G,DF]8 | [G,_D_F]8 |[K:Gb] x8 | x8 | %36
 z (!>!.[B,-B] .[B,B]2) (.B .B2) .B |[M:3/4][I:staff +1] B2[I:staff -1] (!>!.B .B2) B | %38
[M:4/4] B2 [B,B-]2[I:staff +1] (!>!.B, .B,2)[I:staff -1] .B,- | [B,_FBd]4 x4 | %40
 x (!>!.B .B2) !tenuto![B,B]2 (!>!.[B,-B] .[B,B]-) | %41
[B,B] !tenuto![B,B]2 (!>!.[B,-B] .[B,B]2) (!>!.[B,-B] .[B,B]-) | %42
 [B,B] [B,B]2 (!>!.[B,-B] .[B,B]2) z2 | x (!>!.B .B2){/!>!_F} (F2 B,2-) | B,4 _F4 | (!>!E2 B,6) | %46
 (!>!=D2 B,6) | (!>!_D2 B,6) | (!>!D2 B,6) | (!>!D2 B,6) | x8 | x8 |] %52
V:5
 x8 | x8 | ([E,,B,,F,]4- [E,,B,,F,][C,,G,,D,][D,,A,,E,]>[A,,E,B,] | %3
 [E,,B,,F,]4- [E,,B,,F,][C,,G,,D,][D,,A,,E,]>[A,,E,B,] | [E,,B,,F,]8)[K:treble] | (D>E D2 _FE=C>E | %6
 E2 D6) |[K:bass] ([E,,B,,F,]4- [E,,B,,F,][C,,G,,D,][D,,A,,E,]>[A,,E,B,] | [E,,B,,F,]8)[K:treble] | %9
 ([D_F]>[EG] [DF]2 [FA][E=G][=CE]>[E_G] | [EG]2 [D_F]4) x2 | %11
[K:bass] ([!courtesy!=F,CE]4- [F,CE][^C,_A,=B,][=D,A,_B,=C]>[A,B,=DG] | %12
 [F,CE]4- [F,CE][^C,_A,=B,] (3[=D,A,_B,=C][A,-B,-=DG][A,B,_DF] | %13
 [F,CE]4-) [F,CE]!>(! ([F,B,=D]2!>)!!pp! [=D,A,B,=C]) |[M:3/4] x6 | x6 | %16
[M:4/4][K:treble] x3 B,- B,2 B,- B,- |B, x2 B,- B,2 B, .[B,B]- | [B,B] x x2 x4 | x8 | %20
 x2[K:bass] x2 A,,4- | A,,4 A,,4 |[K:C][K:treble] x8 | x8 | x8 |[K:bass] [^E,B,]8 | [^E,B,]8 | %27
[M:6/4] x12 | x12 |[M:4/4]{/[^E,B,]} [E,B,]8 | [D,_A,]8 |[M:5/4][K:treble] x10 |[M:4/4] x8 | x8 | %34
[K:Gb] x ([EGB]3- [EGB][=B,EG] [=CEG]>[FGd]) | ([EGB]4- [EGB][=B,EG] (3[=CEG][FA=c][=E=G=B]) | x8 | %37
[M:3/4] x2[K:bass] x4 |[M:4/4] x8 | z ([B,,_F,D][D,-G,E][D,_F] [F,G][F,DA][A,DB][B,DA] | %40
 [DG][B,-_F][A,B,D][_F,B,])[K:treble]!mp! z (!>![_F,_F]3- | %41
 [F,F]>[G,G] [_F,_F]2 [A,A][=G,=G] [D,D]>[_G,_G] | [G,G]2 [_F,_F]4)[K:bass] (!>!.B, .B,-) | %43
B, x x2 x4 | x8 | x8 | x8 | x8 | x8 | x8 | x8 | x8 |] %52
V:6
 x8 | x8 | x8 | x8 | x8 | x8 | x8 | x8 | x8 | x8 | x8 | x8 | x8 | x8 |[M:3/4] x6 | x6 | %16
[M:4/4] z2 [E,,,E,,]6- | [E,,,E,,]2 [E,,,E,,]6- | [E,,,E,,]2 [E,,,E,,]6 | [A,,,A,,]8- | %20
 [A,,,A,,]8 | x8 |[K:C] [G,,,G,,]8- | [G,,,G,,]8 | x8 | [^C,,,^C,,]8 | [^C,,,^C,,]8 |[M:6/4] x12 | %28
 x12 |[M:4/4]{/[^C,,^C,]} [C,,C,]8 | [_B,,,_B,,]8 |[M:5/4] x10 |[M:4/4] x8 | x8 |[K:Gb] x8 | x8 | %36
 x8 |[M:3/4] x6 |[M:4/4] x8 |!8vb(! x8 | x8 | [B,,,B,,]8 | x8 | x8 | x8 | x8 | x8 | x8 | x8 | %49
 x8!8vb)! | x8 | x x7 |] %52
V:7
 x8 | x8 | x8 | x8 | x8 | x8 | x8 | x8 | x8 | x8 | x8 | x8 | x8 | x8 |[M:3/4] x6 | x6 |[M:4/4] x8 | %17
 x8 | x8 | x!8va(! x3!8va)! x4 | x8 | x8 |[K:C] x!8va(! x3!8va)! x4 | x8 | x8 | x8 | x8 | %27
[M:6/4] x12 | x12 |[M:4/4] x8 | x8 |[M:5/4] x10 |[M:4/4] x8 | x6 _F2 |[K:Gb] x8 | x8 | x8 | %37
[M:3/4] x6 |[M:4/4] x8 | x!8va(! x3!8va)! x4 | x8 | x8 | x8 | x8 | x8 | x8 | x8 | x8 | x8 | x8 | %50
 x8 | x8 |] %52
V:8
 x8 | x8 | x8 | x8 | x6[K:treble] x2 | x8 | x8 |[K:bass] x8 | x6[K:treble] x2 | x8 | x8 | %11
[K:bass] x8 | x8 | x8 |[M:3/4] x6 | x6 |[M:4/4][K:treble] x8 | x8 | x8 | x8 | x2[K:bass] x6 | x8 | %22
[K:C][K:treble] x8 | x8 | x8 |[K:bass] x8 | x8 |[M:6/4] x12 | x12 |[M:4/4] x8 | x8 | %31
[M:5/4][K:treble] x10 |[M:4/4] x8 | x8 |[K:Gb] x8 | x7 _B,- | B, x7 |[M:3/4] x2[K:bass] x4 | %38
[M:4/4] x8 | x8 | x4[K:treble] x4 | x8 | x4[K:bass] x4 | x8 | x8 | x8 | x8 | x8 | x8 | x8 | x8 | %51
 x8 |] %52

